X: 14500
T: Gan Ainm
R: hornpipe
M: 4/4
K: Gmajor
g>G (3GGG D>GB>d|g>Bd>g b>gd>B|A>=FA>c =f>cf>g|a>gf>d c>A (3def|
g>G (3GGG D>GB>d|g>Bd>g b>gd>B|c>A=F>A D>EF>c|B>dc>A G4:|
d>g (3ggg b>gd>B|A>=FA>c =f>cA>c|B>G (3Bcd e>d (3Bcd|(3gba (3gfe d2 B>c|
d>g (3ggg b>gd>B|A>=FA>c =f>cA>c|B>G=F>G D>GA>c|B>dc>A G4:|

